X:1
T:Hommage a S. Pickwick Esq. P. P. M. P. C.
T:Hommage à S. Pickwick Esq. P. P. M. P. C.
T:No 9 from Préludes Book 2 
T:Claude Debussy (1862-1918)
C:Claude Debussy (1862-1918)
%%score { ( 1 5 ) | ( 2 6 ) | ( 3 4 ) }
L:1/8
Q:1/4=69
M:3/4
K:F
V:1 treble nm="Grand Piano" snm="Pno."
V:5 treble 
V:2 bass 
V:6 bass 
V:3 bass 
V:4 bass 
V:1
"^Grave" z6 | ([GBdg]4 [DGBd]2) | ([CEAc]2 [A,^CFA]2 [G,DFG]2 | ([E,B,=C]2 [B,CD]>E [A,CF]2)) | %4
 z !tenuto![B,D]- ([B,D]2 [A,^C]2) | ([D,D]2 [A,A]2) ([A,A]2 | [Dd]2) ([Dd]2 [Aa]2-) | %7
 ([Aa]2 !tenuto![dd']2 !tenuto![ee']2- |!ff! [ee']) z z"^Aimable" ([E^Gc][^CFA][B,DF] | %9
"_expressif" C2-) (C>D) (D>G) | C2- (C>D) (D>G) |[Q:1/4=70]"^Peu à peu animé""_léger" G2- G z z2 | %12
[Q:1/4=71] x6 |[Q:1/4=72] x6 |[Q:1/4=73] (G4 F2 |[Q:1/4=74] [B,C]6) |[Q:1/4=75] (G4 F2 | %17
[Q:1/4=76] [B,C]6) | %18
[Q:1/4=77]!mp! (D/>"_cresc. molto".C/)(D/>.E/) ([DF]/>.[CE]/)([DF]/>.[EG]/) ([FA]/>.[EG]/)([FA]/>.[G=B]/) | %19
[Q:1/4=78] ([Ac]/>[G=B]/).[FA]/.[Ac]/ ([df]/>[ce]/).[Bd]/.[df]/ ([fa]/>[eg]/).[df]/.[fa]/ | %20
!f![Q:1/4=65]"^Retenu" !tenuto![cegc']4 !tenuto![Acea]2- | [Acea]2 !tenuto![G=Bdg]4- | %22
 [GBdg]2 z2 z2 | z2 [cegc']2 z2 | [Acea]2 z2 [G=Bdg]2- |[Q:1/4=69]"^Mouvt." [GBdg]2 z2 z2 | %26
 !tenuto![FA]4 z2 | !tenuto![_EG]4 z2 |!p!!<(! ([FA]4!<)!!mp! .[FGd]2) | %29
!p!!<(! ([_EG]4!<)!!mp! .[EFc]2) |[Q:1/4=70]"^Animez peu à peu" ([B,D]4 [CE]2 | %31
[Q:1/4=71] [B,D]2 [CE]2 [DF]2) |[Q:1/4=72] ([_EG]4 [FA]2 |[Q:1/4=73] [_EG]2 [FA]2 [GB]2) | %34
[Q:1/4=74] ([_Ac]/>.[G=B]/)([_Bd]/>.[Ac]/) ([Ac]/>.[G=B]/)([_Bd]/>.[Ac]/) ([ce]/>.[=B_e]/)([_df]/>.[c=e]/) | %35
[Q:1/4=75]"^\n" ([_eg]/>.[d^f]/)([=fa]/>.[=e_a]/) ([_gb]/>.[f=a]/)([_ac']/>.[=g=b]/) ([_bd']/>.[=f^a]/)([=a=c']/>.[=b_e']/) | %36
[Q:1/4=76]!f! ([_d'f']/>.[c'=e']/)([d'f']/>.[c'e']/) ([d'f']/>.[c'e']/)([d'f']/>.[c'e']/) ([d'f']/>.[c'e']/)([d'f']/>.[c'e']/) | %37
[Q:1/4=77] ([=d'f']/>.[^c'e']/)([d'f']/>.[c'e']/)!<(! ([d'f']/>.[c'e']/)([d'f']/>.[c'e']/) ([d'f']/>.[c'e']/)([d'f']/>.[c'e']/)!<)! | %38
[Q:1/4=79] ([_d'f']/>.[=c'e']/)([d'f']/>.[c'e']/) ([d'f']/>.[c'e']/)([d'f']/>.[c'e']/) ([d'f']/>.[c'e']/)([d'f']/>.[c'e']/) | %39
[Q:1/4=80] ([=d'f']/>.[^c'e']/)([d'f']/>.[c'e']/) ([d'f']/>.[c'e']/)([d'f']/>.[c'e']/) ([d'f']/>.[c'e']/)([d'f']/>.[^d'^f']/) | %40
[Q:1/4=69]"^Mouvt." z2 z!p!!>(! ([E^Gc][^CFA][B,DF]!>)! | C2-) (C>D) (D>G) | %42
 C2-!>(! (C>D) (D>!breath!G)!>)! || %43
!pp![Q:1/4=69]"^Même mouvt." (3(a/d'/a/(3^f'/)z/(e'/ (3d'/)z/(=b/(3a/)z/^f/ (3(d/e/f/(3e/)z/(d/ | %44
 (3=B/)z/(A/(3B/)z/d/ (3(d/a/^f/(3e/)z/(d/ (3B/)z/(A/(3B/)z/d/ | %45
 (3z/!<(! (A/^F/(3E/)z/.D/!<)! (x/4!p!!>(!x/4x/4x/4x/4x/4x/4x/4 x/4x/4x/4x/4x/4x/4x/4x/4)!>)! | %46
!pp! (x/4x/4x/4x/4x/4x/4x/4x/4 x/4x/4x/4x/4x/4x/4x/4x/4) x2 | %47
[Q:1/4=65]"^Mouvt. retenu" z2 z!mf!!<(! C D>G!<)! |!f! [A,G]6- | [A,G]2 C4 | x6 | x6 | %52
!<(! z2 z2!<)!!ff! x2 |!p! [fac'f']6 |] %54
V:2
 z6 | z6 | z6 | z6 |"_dim." z (E,/F,/ G,3 F,/E,/) |!p!"_cresc. molto" A,4 [B,D]2- | %6
 [B,D]2[I:staff -1] A4 |!f!!<(! d4[I:staff +1] x2!<)! | x3!p!!>(! x3!>)! | %9
!pp!!<(! (E,2 F,2 [G,B,]2)!<)! |!p!!<(! (E,2 F,2 [G,B,]2)!<)! |!pp! B,2- B, z z2 | %12
!<(![I:staff -1] (D/>.C/)(D/>.C/) (D/>.C/)(D/>.C/)[I:staff +1] (B,/>.A,/)(G,/>.F,/)!<)! | %13
!mp!!>(! (G,/>.F,/)(G,/>.F,/) (G,/>.F,/)(G,/>.F,/) (G,/>.A,/)(B,/>.C/)!>)! | %14
!p!"^simile"!<(![I:staff -1] (D/>.C/)(D/>.C/) (D/>.C/)(D/>.C/)[I:staff +1] (B,/>.A,/)(G,/>.F,/) | %15
 (G,/>.F,/)!<)!!mp!(G,/>!>(!.F,/) (G,/>.F,/)(G,/>.F,/) (G,/>.A,/)(B,/>.C/)!>)! | %16
!p![I:staff -1] (D/>.C/)(D/>.C/) (D/>.C/)(D/>.C/)[I:staff +1] (B,/>.A,/)(G,/>.F,/) | %17
!<(! (G,/>.F,/)(G,/>.F,/) (G,/>.F,/)(G,/>.F,/) (G,/>.A,/)(B,/>.C/)!<)! |!mp! A, z z4 | z6 | %20
[K:treble]!f! z2 !^!!tenuto![EGc]2 z2 | !^!!tenuto![CEA]2 z2 !^!!tenuto![=B,DG]2- | %22
 [B,DG]2 z2[K:bass] z/4!f!!<(! D,/4E,/4F,/4G,/4F,/4E,/4D,/4!<)! | %23
!ff! !tenuto![E,G,C]4 !tenuto![C,E,A,]2- | [C,E,A,]2 !tenuto![=B,,D,G,]4- | %25
 [B,,D,G,]2 z2 z (6:4:6z/4!pp! G,/4A,/4=B,/4C/4D/4 | %26
!p!!>(! z2!>)!!pp! z2 z (6:4:6z/4!pp! F,/4G,/4_A,/4_B,/4C/4 | %27
!p!!>(! z2!>)!!pp! z2 z (6:4:6z/4!pp! (G,/4A,/4=B,/4C/4D/4 | %28
[I:staff -1] (=E/>).D/)(E/>.D/) (E/>.D/)(E/>.D/)[I:staff +1] (C/>.=B,/) (6:4:6z/4!pp! (F,/4G,/4_A,/4_B,/4C/4 | %29
[I:staff -1] (D/>).C/)(D/>.C/) (D/>.C/)(D/>.C/)!>(![I:staff +1] (B,/>.A,/)(G,/>.F,/)!>)! | %30
!pp! (G,/>.F,/)(G,/>.F,/) (G,/>.F,/)(G,/>.F,/) (A,/>.G,/)(A,/>.G,/) | %31
!<(! (G,/>.F,/)(G,/>.F,/) (A,/>.G,/)(A,/>.G,/) (B,/>.A,/)(B,/>.A,/)!<)! | %32
!p! (C/>.B,/)(C/>.B,/) (C/>.B,/)(C/>.B,/) (D/>.C/)(D/>.C/) | %33
!<(! (C/>.B,/)(C/>.B,/) (D/>.C/)(D/>.C/) (_E/>.D/)(E/>!<)!!mp!.D/) | %34
[K:treble]!p!"^cresc. molto" (D/>._E/)(=E/>.F/) (D/>._E/)(=E/>.F/) (^F/>.G/)(^G/>.A/) | %35
 (A/>.B/)(=B/>.c/) (^c/>.d/)(^d/>.e/) (f/>.^f/)(g/>.^g/) |!f! !tenuto!a2 !tenuto!a3 !tenuto!b | %37
 !tenuto!g4- (3(g!tenuto!a!tenuto!=b) |!f!!<(! !tenuto!a2 !tenuto!a3 !tenuto!b!<)! | %39
!ff!!<(! !tenuto!g4- (3(g!>!a!<)!!fff!!>!=b) | x6 |[K:bass]!pp!!<(! (E,2 F,2 [G,B,]2)!<)! | %42
!p!!>(! (E,2 F,2 [G,B,]2)!>)! ||!pp! z6 | z6 | z2 (!///-!!courtesy!_B,2 A,2) | %46
!pp!!>(! (!///-!B,2 A,2) (6:4:6(B,/4A,/4[I:staff +1]G,/4F,/4E,/4D,/4!>)!!ppp! .C,/)[I:staff -1] z/ | %47
 x6 |[I:staff -1] (D>C) (D>C) (D>C) | (D>C)"_dim."[I:staff +1] (B,>A,) (G,>F,) | %50
!mf! z2 [C,D,F,]4- | [C,D,F,]2- [C,D,F,] z!f! z2 |[K:treble]!f! !>![FA]6 | x6 |] %54
V:3
!f! !tenuto![F,,,F,,]2 !tenuto![F,,,F,,]2 !tenuto![G,,,G,,]2 | %1
 !tenuto![E,,,E,,]3 !tenuto![F,,,F,,] !tenuto![G,,,G,,]2 | %2
 !tenuto![A,,,A,,]2 !tenuto![A,,,A,,]2 !tenuto![B,,,B,,]2 | %3
 !tenuto![A,,,A,,]3 !tenuto![G,,,G,,] !tenuto![F,,,F,,]2 | %4
 ([A,,,A,,][G,,,G,,] [F,,,F,,]2 [E,,,E,,]2) |!ped! [F,,,F,,]4!ped-up!!ped! [D,F,]2- | %6
 [D,F,]2!ped-up!!ped! [F,A,C]4!ped-up! |!ped! [A,DF]2- [A,DF]!ped-up! z z2 | z2 z (CA,F, | C,6) | %10
 C,6- | C,2- C, z z2 | .D.C.B,.A,.G,.F, | .E,.D,.C,.B,,.A,,.G,, | (C,4 ^C,2 | D,2 E,2 D,2) | %16
 (C,4 ^C,2 | D,2 ^D,2 E,2) | F, z z4 | z6 |!ped! x2 !^!!tenuto![G,C]2!ped-up!!ped! x2 | %21
 !^!!tenuto![E,A,]2!ped-up!!ped! x2 !^!!tenuto![D,G,]2- | [D,G,]2!ped-up! z2 z2 | %23
!ped! !tenuto![C,,G,,C,]4!ped-up!!ped! !tenuto![A,,,E,,A,,]2- | %24
 [A,,,E,,A,,]2!ped-up!!ped! !tenuto![G,,,D,,G,,]4- | [G,,,D,,G,,]2!ped-up! z2"_una corda" z2 | x6 | %27
 x6 | x6 | x6 |"_tre corda" .[B,,F,].F,, .[B,,,F,,].B,, .[C,G,].G,, | %31
 .[B,,F,].F,, .[C,,G,,].C, .[D,A,].A,, | .[_E,B,].B,, .[_E,,B,,].E, .[F,C].C, | %33
 .[_E,B,].B,, .[F,,C,].F, .[G,D].[G,,D,] | z6 | z6 | z6 | z6 | z6 | z6 | z2 z (CA,F, | C,6) | %42
 C,6 ||"_una corda" z6 | z6 | z2"_tre corde" ._B,/ z/ z z2 | x6 | x6 | [F,,C,]6- | [F,,C,]2 z2 z2 | %50
 (D,>C,)!mf!!<(! !tenuto![B,,,B,,]2 !tenuto![A,,,A,,]2 | %51
 z2 z2!<)! z (6:4:6z/4!<(! (G,/4A,/4B,/4C/4D/4!<)! | (!tenuto!E3) !tenuto!D!ped! [C,F,A,C]2-) | %53
!p! [C,F,A,C]6!ped-up! |] %54
V:4
 x6 | x6 | x6 | x6 | x6 | x4 [G,,,G,,]2- | [G,,,G,,]2 [A,,,A,,]4 | [=B,,,=B,,]2- [B,,,B,,] z z2 | %8
 x6 | (A,,G,, F,,2 E,,2) | (A,,G,, F,,2 E,,2-) | E,,2- E,, x3 | x6 | x6 | F,,6- | F,,6 | F,,6- | %17
 F,,6- | F,, x5 | x6 | !tenuto![C,,G,,C,]4 !tenuto![A,,,E,,A,,]2- | %21
 [A,,,E,,A,,]2 !tenuto![G,,,D,,G,,]4- | [G,,,D,,G,,]2 x4 | x6 | x6 | x6 | x6 | x6 | x6 | x6 | x6 | %31
 x6 | x6 | x6 | x6 | x6 | x6 | x6 | x6 | x6 | x6 | (A,,G,, F,,2 E,,2) | (A,,G,, F,,2 E,,2) || x6 | %44
 x6 | x6 | x6 | x6 | x6 | x6 | x6 | !tenuto![G,,,G,,]2 !tenuto![B,,,B,,]2 !tenuto![D,,D,]2 | x6 | %53
 [F,,,C,,F,,]6 |] %54
V:5
 x6 | x6 | x6 | x6 | x6 | x6 | x6 | x6 | x6 | B,4 x2 | B,4 x2 | %11
 (D/>.C/)(D/>.C/) (D/>.C/)(D/>.C/) (D/>.C/)(D/>.C/) | x6 | x6 | x6 | x6 | x6 | x6 | x6 | x6 | x6 | %21
 x6 | x6 | x2 [EG]2 x2 | [CE]2 x2 [=B,D]2- | [B,D]2 x4 | (E2 D2) x2 | (D2 C2) x2 | x6 | x6 | x6 | %31
 x6 | x6 | x6 | x6 | x6 | x6 | x6 | x6 | x6 | x6 | B,4 x2 | B,4 x2 || x6 | x6 | x6 | x6 | x6 | x6 | %49
 x6 | x6 | x6 | x4 [F-A-c-f]2 | [FAc]6 |] %54
V:6
 x6 | x6 | x6 | x6 | x6 | x6 | x6 | x6 | x6 | x6 | x4 x3/2!mp! x/ | x6 | x6 | x6 | A,4 x2 | x6 | %16
 A,4 x2 | x6 | x6 | x6 |[K:treble] x6 | x6 | x4[K:bass] x2 | x6 | x6 | x6 | x6 | x6 | x6 | x6 | %30
 x6 | x6 | x6 | x6 |[K:treble] x6 | x6 | x6 | x6 | x6 | x6 | x6 |[K:bass] x6 | x6 || x6 | x6 | x6 | %46
 x6 | x6 | x6 | x6 | x6 | x6 |[K:treble] x6 | x6 |] %54

